svgs/thin/briefcase-blank.svg

<svg xmlns="http://www.w3.org/2000/svg" viewBox="0 0 512 512"><!--! Font Awesome Pro 6.6.0 by @fontawesome - https://fontawesome.com License - https://fontawesome.com/license (Commercial License) Copyright 2024 Fonticons, Inc. --><path d="M144 40l0 56 224 0 0-56c0-13.3-10.7-24-24-24L168 16c-13.3 0-24 10.7-24 24zM128 96l0-56c0-22.1 17.9-40 40-40L344 0c22.1 0 40 17.9 40 40l0 56 64 0c35.3 0 64 28.7 64 64l0 256c0 35.3-28.7 64-64 64L64 480c-35.3 0-64-28.7-64-64L0 160c0-35.3 28.7-64 64-64l64 0zm248 16l-240 0-72 0c-26.5 0-48 21.5-48 48l0 256c0 26.5 21.5 48 48 48l384 0c26.5 0 48-21.5 48-48l0-256c0-26.5-21.5-48-48-48l-72 0z"/></svg>

<svg xmlns="http://www.w3.org/2000/svg" viewBox="0 0 512 512"><!--! Font Awesome Pro 6.4.0 by @fontawesome - https://fontawesome.com License - https://fontawesome.com/license (Commercial License) Copyright 2023 Fonticons, Inc. --><path d="M144 40V96H368V40c0-13.3-10.7-24-24-24H168c-13.3 0-24 10.7-24 24zM128 96V40c0-22.1 17.9-40 40-40H344c22.1 0 40 17.9 40 40V96h64c35.3 0 64 28.7 64 64V416c0 35.3-28.7 64-64 64H64c-35.3 0-64-28.7-64-64V160c0-35.3 28.7-64 64-64h64zm248 16H136 64c-26.5 0-48 21.5-48 48V416c0 26.5 21.5 48 48 48H448c26.5 0 48-21.5 48-48V160c0-26.5-21.5-48-48-48H376z"/></svg>
